!!!!SEGMENT: pl-sa--481-a-viii-121--022_anonim-krakowiak.krn
!!!id: 18xx:393
!!!COM: Anonim
!!!OTL: Krakowiak
!!!PDT:
!!!SMS-siglum: PL-SA
!!!SMS-shelfmark: 481/A VIII 121
!!!NIFC-rismID: 1001070685
!!!URL-scan: http://bc.bdsandomierz.pl/dlibra/publication/1212/edition/1171/content
!!!ONB-nifc: Str. 19, s. 2-3
!!!SMS-variant:
!!!SMS-altvar:
**kern	**kern
*part1	*part1
*staff2	*staff1
*I"Piano	*
*I'P-no	*
*clefF4	*clefG2
*k[]	*k[]
*M2/4	*M2/4
*>[A,A,B,B]	*>[A,A,B,B]
=1	=1
*>A	*>A
!LO:TX:a:t=P:problem:omyłkowo wpisany klucz F3	!LO:TX:a:t=Kra&colon;
8BL 8G\	8b\L
8d\J	8dd\
*rep	*
8BL 8G\	8ff\
8d\J	8aa\J
*Xrep	*
=2	=2
8cL 8G\	8gg\
8e\J	4.ee\
*rep	*
8cL 8G\	.
8e\J	.
*Xrep	*
=3	=3
8BL 8G\	8gg\L
8d\J	8gg\
*rep	*
8BL 8G\	8ff\
8d\J	8dd\J
*Xrep	*
=4	=4
8cL 8G\	8cc\
8e\J	4.ee\
*rep	*
8cL 8G\	.
8e\J	.
*Xrep	*
=5	=5
8BL 8G\	8b\L
8d\J	8dd\
*rep	*
8BL 8G\	8ff\
8d\J	8aa\J
*Xrep	*
=6	=6
8cL 8G\	8gg\
8e\J	4.ee\
*rep	*
8cL 8G\	.
8e\J	.
*Xrep	*
=7	=7
8BL 8G\	8gg\L
8d\J	8gg\
*rep	*
8BL 8G\	8ff\
8d\J	8dd\J
*Xrep	*
=8	=8
8cL 8G\	8dd\L
8e\J	8cc\J
*rep	*
8cL 8G\	4cc\
8e\J	.
*Xrep	*
=9:|!|:	=9:|!|:
*>B	*>B
8dL 8G\	8ff\L
8f\J	8aa\
*rep	*
8dL 8G\	8ccc\
8f\J	8aa\J
*Xrep	*
=10	=10
8cL 8G\	8gg\
8e\J	4.ee\
*rep	*
8cL 8G\	.
8e\J	.
*Xrep	*
=11	=11
8BL 8G\	8gg\L
8d\J	8gg\
*rep	*
8BL 8G\	8ff\
8d\J	8dd\J
*Xrep	*
=12	=12
8cL 8G\	8cc\
8e\J	4.ee\
*rep	*
8cL 8G\	.
8e\J	.
*Xrep	*
!LO:LB:g=original	!LO:LB:g=original
=13	=13
8dL 8G\	8ff\L
8f\J	8aa\
*rep	*
8dL 8G\	8ccc\
8f\J	8aa\J
*Xrep	*
=14	=14
8cL 8G\	8gg\
8e\J	4.ee\
*rep	*
8cL 8G\	.
8e\J	.
*Xrep	*
=15	=15
8BL 8G\	8gg\L
8d\J	8gg\
*rep	*
8BL 8G\	8ff\
8d\J	8dd\J
*Xrep	*
=16	=16
8cL 8G\	8dd\L
8e\J	8cc\J
*rep	*
8cL 8G\	4cc\
8e\J	.
*Xrep	*
=:|!	=:|!
*-	*-
!!!system-decoration: s1,s2
!!!ENC: Marcin Jachim
!!!END: 2020-06-15
!!!ENC: Marta Lawrence
!!!END: 2020-11-21
